X: 27
T:Richer's Hornpipe (#331)
M:4/4
L:1/8
S:Wilson's Companion to the Ballroom 1816
R:Hornpipe
K:D
fg|afaf d2 cd|ecec A2 GF|GABc defg|ecAc e2 fg|
afaf d2 cd|ecec A2 GF|Ggbg fdec|d2 dd d2:|
|:de|fdfd B2 ga|b2 e2 e2 cd|ecec A2 fg|a2 d2 d2 A2|
BcdB AFAF|BcdB AFAF|Ggbg fdec|d2 dd d2:||

